X:230
T: Piper's Jig
S: Treoir
Z: B.Black
N: as "gan ainm"
M: 6/8
L: 1/8
R: jig
K: Ador
(3Bcd |eAA Bcd |eaf ged |edB cBA |BAG A2 (3Bcd |
eAA Bcd | eaf ged | edB cBA | BAG A2 :|
(3Bcd |eaa efg |agf ged |eaa efg |fed e2 d |
eaa efg | agf ged | edB cBA | BAG A2 :|
